; G-Code generated by Simplify3D(R) Version 4.1.2
; Nov 25, 2022 at 4:36:44 PM
; Settings Summary
;   processName,Et5Pro Tami
;   applyToModels,rfid_box3
;   profileName,Et5 Tami (modified)
;   profileVersion,2021-05-31 17:22:34
;   baseProfile,Default (modified)
;   printMaterial,PLA
;   printQuality,0.3
;   printExtruders,
;   extruderName,Primary Extruder
;   extruderToolheadNumber,0
;   extruderDiameter,0.4
;   extruderAutoWidth,1
;   extruderWidth,0.48
;   extrusionMultiplier,1
;   extruderUseRetract,1
;   extruderRetractionDistance,2
;   extruderExtraRestartDistance,0
;   extruderRetractionZLift,0
;   extruderRetractionSpeed,3000
;   extruderUseCoasting,0
;   extruderCoastingDistance,0.2
;   extruderUseWipe,0
;   extruderWipeDistance,5
;   primaryExtruder,0
;   layerHeight,0.3
;   topSolidLayers,3
;   bottomSolidLayers,3
;   perimeterOutlines,2
;   printPerimetersInsideOut,1
;   startPointOption,2
;   startPointOriginX,0
;   startPointOriginY,0
;   sequentialIslands,0
;   spiralVaseMode,0
;   firstLayerHeightPercentage,100
;   firstLayerWidthPercentage,120
;   firstLayerUnderspeed,0.5
;   useRaft,0
;   raftExtruder,0
;   raftTopLayers,1
;   raftBaseLayers,0
;   raftOffset,0
;   raftSeparationDistance,0
;   raftTopInfill,100
;   aboveRaftSpeedMultiplier,0.3
;   useSkirt,1
;   skirtExtruder,0
;   skirtLayers,1
;   skirtOutlines,2
;   skirtOffset,4
;   usePrimePillar,0
;   primePillarExtruder,999
;   primePillarWidth,12
;   primePillarLocation,7
;   primePillarSpeedMultiplier,1
;   useOozeShield,0
;   oozeShieldExtruder,999
;   oozeShieldOffset,2
;   oozeShieldOutlines,1
;   oozeShieldSidewallShape,1
;   oozeShieldSidewallAngle,30
;   oozeShieldSpeedMultiplier,1
;   infillExtruder,0
;   internalInfillPattern,Rectilinear
;   externalInfillPattern,Rectilinear
;   infillPercentage,30
;   outlineOverlapPercentage,15
;   infillExtrusionWidthPercentage,100
;   minInfillLength,5
;   infillLayerInterval,1
;   internalInfillAngles,45,-45
;   overlapInternalInfillAngles,0
;   externalInfillAngles,45,-45
;   generateSupport,0
;   supportExtruder,0
;   supportInfillPercentage,25
;   supportExtraInflation,0.1
;   supportBaseLayers,0
;   denseSupportExtruder,0
;   denseSupportLayers,0
;   denseSupportInfillPercentage,10
;   supportLayerInterval,1
;   supportHorizontalPartOffset,0.3
;   supportUpperSeparationLayers,1
;   supportLowerSeparationLayers,1
;   supportType,1
;   supportGridSpacing,3
;   maxOverhangAngle,45
;   supportAngles,0
;   temperatureName,Primary Extruder,Bed
;   temperatureNumber,0,0
;   temperatureSetpointCount,2,2
;   temperatureSetpointLayers,1,2,1,2
;   temperatureSetpointTemperatures,205,200,60,55
;   temperatureStabilizeAtStartup,1,1
;   temperatureHeatedBed,0,1
;   fanLayers,1,2
;   fanSpeeds,0,100
;   blipFanToFullPower,0
;   adjustSpeedForCooling,0
;   minSpeedLayerTime,15
;   minCoolingSpeedSlowdown,30
;   increaseFanForCooling,0
;   minFanLayerTime,45
;   maxCoolingFanSpeed,100
;   increaseFanForBridging,0
;   bridgingFanSpeed,100
;   use5D,1
;   relativeEdistances,0
;   allowEaxisZeroing,1
;   independentExtruderAxes,0
;   includeM10123,0
;   stickySupport,1
;   applyToolheadOffsets,0
;   gcodeXoffset,0
;   gcodeYoffset,0
;   gcodeZoffset,0
;   overrideMachineDefinition,1
;   machineTypeOverride,0
;   strokeXoverride,300
;   strokeYoverride,300
;   strokeZoverride,400
;   originOffsetXoverride,0
;   originOffsetYoverride,-10
;   originOffsetZoverride,0
;   homeXdirOverride,-1
;   homeYdirOverride,1
;   homeZdirOverride,1
;   flipXoverride,-1
;   flipYoverride,1
;   flipZoverride,1
;   toolheadOffsets,0,0|0,0|0,0|0,0|0,0|0,0
;   overrideFirmwareConfiguration,0
;   firmwareTypeOverride,RepRap (Marlin/Repetier/Sprinter)
;   GPXconfigOverride,r2
;   baudRateOverride,115200
;   overridePrinterModels,0
;   printerModelsOverride
;   startingGcode,G28 ; home all axes,G1 E15 F225 ; purge nozzle with 15mm filament,G1 X20 Y5 F15000; move nozzle aside,G92 E0 ; zero the extruded length again
;   layerChangeGcode,
;   retractionGcode,
;   toolChangeGcode,
;   endingGcode,M104 S0 ; turn off extruder,M140 S0 ; turn off bed,M84 ; disable motors,M107;
;   exportFileFormat,gcode
;   celebration,0
;   celebrationSong,Random Song
;   postProcessing,
;   defaultSpeed,2700
;   outlineUnderspeed,0.6
;   solidInfillUnderspeed,1
;   supportUnderspeed,1
;   rapidXYspeed,3600
;   rapidZspeed,5400
;   minBridgingArea,50
;   bridgingExtraInflation,0
;   bridgingExtrusionMultiplier,1
;   bridgingSpeedMultiplier,0.7
;   useFixedBridgingAngle,0
;   fixedBridgingAngle,0
;   applyBridgingToPerimeters,0
;   filamentDiameters,1.75|1.75|1.75|1.75|1.75|1.75
;   filamentPricesPerKg,100|180|180|180|180|180
;   filamentDensities,1.25|1.25|1.25|1.25|1.25|1.25
;   useMinPrintHeight,0
;   minPrintHeight,0
;   useMaxPrintHeight,0
;   maxPrintHeight,100
;   useDiaphragm,0
;   diaphragmLayerInterval,20
;   robustSlicing,1
;   mergeAllIntoSolid,0
;   onlyRetractWhenCrossingOutline,1
;   retractBetweenLayers,1
;   useRetractionMinTravel,0
;   retractionMinTravel,3
;   retractWhileWiping,0
;   onlyWipeOutlines,1
;   avoidCrossingOutline,0
;   maxMovementDetourFactor,3
;   toolChangeRetractionDistance,12
;   toolChangeExtraRestartDistance,-0.5
;   toolChangeRetractionSpeed,600
;   externalThinWallType,0
;   internalThinWallType,1
;   thinWallAllowedOverlapPercentage,10
;   singleExtrusionMinLength,1
;   singleExtrusionMinPrintingWidthPercentage,50
;   singleExtrusionMaxPrintingWidthPercentage,200
;   singleExtrusionEndpointExtension,0.2
;   horizontalSizeCompensation,0
G90
M82
M106 S0
M140 S60
M190 S60
M104 S205 T0
M109 S205 T0
G28 ; home all axes
G1 E15 F225 ; purge nozzle with 15mm filament
G1 X20 Y5 F15000; move nozzle aside
G92 E0 ; zero the extruded length again
; process Et5Pro Tami
; layer 1, Z = 0.300
T0
G92 E0.0000
G1 E-2.0000 F3000
; feature skirt
; tool H0.300 W0.576
G1 Z0.300 F5400
G1 X72.383 Y95.482 F3600
G1 E0.0000 F3000
G92 E0.0000
G1 X74.442 Y93.902 E0.1865 F1350
G1 X74.994 Y93.583 E0.2323
G1 X77.392 Y92.590 E0.4187
G1 X78.008 Y92.425 E0.4645
G1 X80.423 Y92.107 E0.6395
G1 X80.741 Y92.086 E0.6624
G1 X219.318 Y92.094 E10.6181
G1 X219.635 Y92.114 E10.6409
G1 X221.992 Y92.425 E10.8117
G1 X222.608 Y92.590 E10.8575
G1 X225.006 Y93.583 E11.0440
G1 X225.558 Y93.902 E11.0898
G1 X227.617 Y95.482 E11.2762
G1 X228.068 Y95.933 E11.3220
G1 X229.648 Y97.992 E11.5085
G1 X229.967 Y98.544 E11.5543
G1 X230.960 Y100.942 E11.7408
G1 X231.125 Y101.558 E11.7866
G1 X231.443 Y103.973 E11.9616
G1 X231.464 Y104.291 E11.9845
G1 X231.464 Y215.709 E19.9890
G1 X231.443 Y216.027 E20.0119
G1 X231.125 Y218.442 E20.1869
G1 X230.960 Y219.058 E20.2327
G1 X229.967 Y221.456 E20.4191
G1 X229.648 Y222.008 E20.4650
G1 X228.068 Y224.067 E20.6514
G1 X227.617 Y224.518 E20.6972
G1 X225.558 Y226.098 E20.8837
G1 X225.006 Y226.417 E20.9295
G1 X222.608 Y227.410 E21.1160
G1 X221.992 Y227.575 E21.1618
G1 X219.577 Y227.893 E21.3368
G1 X219.259 Y227.914 E21.3596
G1 X80.741 Y227.914 E31.3111
G1 X80.423 Y227.893 E31.3340
G1 X78.008 Y227.575 E31.5090
G1 X77.392 Y227.410 E31.5548
G1 X74.994 Y226.417 E31.7412
G1 X74.442 Y226.098 E31.7870
G1 X72.383 Y224.518 E31.9735
G1 X71.932 Y224.067 E32.0193
G1 X70.352 Y222.008 E32.2058
G1 X70.033 Y221.456 E32.2516
G1 X69.040 Y219.058 E32.4381
G1 X68.875 Y218.442 E32.4839
G1 X68.557 Y216.027 E32.6589
G1 X68.536 Y215.709 E32.6817
G1 X68.536 Y104.291 E40.6862
G1 X68.557 Y103.973 E40.7091
G1 X68.875 Y101.558 E40.8841
G1 X69.040 Y100.942 E40.9299
G1 X70.033 Y98.544 E41.1164
G1 X70.352 Y97.992 E41.1622
G1 X71.932 Y95.933 E41.3487
G1 X72.383 Y95.482 E41.3945
G92 E0.0000
G1 E-2.0000 F3000
G1 X72.763 Y95.916 F3600
G1 E0.0000 F3000
G92 E0.0000
G1 X74.763 Y94.382 E0.1810 F1350
G1 X75.249 Y94.101 E0.2214
G1 X77.578 Y93.136 E0.4025
G1 X78.120 Y92.991 E0.4428
G1 X80.480 Y92.680 E0.6138
G1 X80.760 Y92.662 E0.6340
G1 X219.299 Y92.670 E10.5869
G1 X219.579 Y92.688 E10.6070
G1 X221.880 Y92.991 E10.7737
G1 X222.422 Y93.136 E10.8141
G1 X224.751 Y94.101 E10.9952
G1 X225.237 Y94.382 E11.0355
G1 X227.237 Y95.916 E11.2166
G1 X227.634 Y96.313 E11.2570
G1 X229.168 Y98.313 E11.4380
G1 X229.449 Y98.799 E11.4784
G1 X230.414 Y101.128 E11.6594
G1 X230.559 Y101.671 E11.6998
G1 X230.870 Y104.029 E11.8707
G1 X230.888 Y104.310 E11.8909
G1 X230.888 Y215.690 E19.8927
G1 X230.870 Y215.971 E19.9129
G1 X230.559 Y218.329 E20.0838
G1 X230.414 Y218.872 E20.1242
G1 X229.449 Y221.201 E20.3053
G1 X229.168 Y221.687 E20.3456
G1 X227.634 Y223.687 E20.5267
G1 X227.237 Y224.084 E20.5671
G1 X225.237 Y225.618 E20.7481
G1 X224.751 Y225.899 E20.7885
G1 X222.422 Y226.864 E20.9695
G1 X221.880 Y227.009 E21.0099
G1 X219.521 Y227.320 E21.1808
G1 X219.240 Y227.338 E21.2010
G1 X80.760 Y227.338 E31.1497
G1 X80.479 Y227.320 E31.1699
G1 X78.120 Y227.009 E31.3408
G1 X77.578 Y226.864 E31.3812
G1 X75.249 Y225.899 E31.5623
G1 X74.763 Y225.618 E31.6026
G1 X72.763 Y224.084 E31.7837
G1 X72.366 Y223.687 E31.8241
G1 X70.832 Y221.687 E32.0051
G1 X70.551 Y221.201 E32.0455
G1 X69.586 Y218.872 E32.2265
G1 X69.441 Y218.329 E32.2669
G1 X69.130 Y215.971 E32.4378
G1 X69.112 Y215.690 E32.4580
G1 X69.112 Y104.310 E40.4598
G1 X69.130 Y104.029 E40.4800
G1 X69.441 Y101.671 E40.6509
G1 X69.586 Y101.128 E40.6913
G1 X70.551 Y98.799 E40.8723
G1 X70.832 Y98.313 E40.9127
G1 X72.366 Y96.313 E41.0938
G1 X72.763 Y95.916 E41.1342
G92 E0.0000
G1 E-2.0000 F3000
; feature inner perimeter
G1 X79.486 Y98.008 F3600
G1 E0.0000 F3000
G92 E0.0000
G1 X80.957 Y97.814 E0.1066 F1080
G1 X219.102 Y97.822 E10.0312
G1 X220.514 Y98.008 E10.1335
G1 X218.938 Y99.153 E10.2735
G1 X218.192 Y101.450 E10.4470
G1 X218.938 Y103.747 E10.6205
G1 X220.892 Y105.167 E10.7941
G1 X223.308 Y105.167 E10.9676
G1 X225.603 Y103.499 E11.1715
G1 X225.736 Y104.507 E11.2445
G1 X225.736 Y215.493 E19.2180
G1 X225.603 Y216.501 E19.2910
G1 X223.308 Y214.833 E19.4948
G1 X220.892 Y214.833 E19.6684
G1 X218.938 Y216.253 E19.8419
G1 X218.192 Y218.550 E20.0154
G1 X218.938 Y220.847 E20.1890
G1 X220.514 Y221.992 E20.3289
G1 X219.043 Y222.186 E20.4355
G1 X80.957 Y222.186 E30.3559
G1 X79.486 Y221.992 E30.4625
G1 X81.062 Y220.847 E30.6024
G1 X81.808 Y218.550 E30.7760
G1 X81.062 Y216.253 E30.9495
G1 X79.108 Y214.833 E31.1230
G1 X76.692 Y214.833 E31.2966
G1 X74.397 Y216.501 E31.5004
G1 X74.264 Y215.493 E31.5734
G1 X74.264 Y104.507 E39.5469
G1 X74.397 Y103.499 E39.6199
G1 X76.692 Y105.167 E39.8238
G1 X79.108 Y105.167 E39.9973
G1 X81.062 Y103.747 E40.1708
G1 X81.808 Y101.450 E40.3444
G1 X81.062 Y99.153 E40.5179
G1 X79.486 Y98.008 E40.6579
; feature outer perimeter
G1 X78.921 Y98.309 F3600
G92 E0.0000
G1 X77.162 Y98.309 E0.1264 F810
G1 X77.295 Y98.206 E0.1385
G1 X79.034 Y97.486 E0.2737
G1 X80.919 Y97.238 E0.4102
G1 X219.139 Y97.246 E10.3403
G1 X220.966 Y97.486 E10.4726
G1 X222.705 Y98.206 E10.6078
G1 X222.838 Y98.309 E10.6199
G1 X221.079 Y98.309 E10.7463
G1 X219.428 Y99.509 E10.8929
G1 X218.797 Y101.450 E11.0396
G1 X219.428 Y103.391 E11.1862
G1 X221.079 Y104.591 E11.3329
G1 X223.121 Y104.591 E11.4795
G1 X224.772 Y103.391 E11.6262
G1 X225.403 Y101.450 E11.7728
G1 X225.105 Y100.535 E11.8420
G1 X225.344 Y100.845 E11.8701
G1 X226.064 Y102.584 E12.0053
G1 X226.312 Y104.469 E12.1418
G1 X226.312 Y215.531 E20.1208
G1 X226.064 Y217.416 E20.2573
G1 X225.344 Y219.155 E20.3926
G1 X225.105 Y219.465 E20.4207
G1 X225.403 Y218.550 E20.4898
G1 X224.772 Y216.609 E20.6364
G1 X223.121 Y215.409 E20.7831
G1 X221.079 Y215.409 E20.9297
G1 X219.428 Y216.609 E21.0764
G1 X218.797 Y218.550 E21.2230
G1 X219.428 Y220.491 E21.3697
G1 X221.079 Y221.691 E21.5163
G1 X222.838 Y221.691 E21.6427
G1 X222.705 Y221.794 E21.6548
G1 X220.966 Y222.514 E21.7900
G1 X219.081 Y222.762 E21.9266
G1 X80.919 Y222.762 E31.8524
G1 X79.034 Y222.514 E31.9890
G1 X77.295 Y221.794 E32.1242
G1 X77.162 Y221.691 E32.1363
G1 X78.921 Y221.691 E32.2627
G1 X80.572 Y220.491 E32.4093
G1 X81.203 Y218.550 E32.5559
G1 X80.572 Y216.609 E32.7026
G1 X78.921 Y215.409 E32.8492
G1 X76.879 Y215.409 E32.9959
G1 X75.228 Y216.609 E33.1425
G1 X74.597 Y218.550 E33.2892
G1 X74.895 Y219.465 E33.3583
G1 X74.656 Y219.155 E33.3864
G1 X73.936 Y217.416 E33.5216
G1 X73.688 Y215.531 E33.6582
G1 X73.688 Y104.469 E41.6371
G1 X73.936 Y102.584 E41.7737
G1 X74.656 Y100.845 E41.9089
G1 X74.895 Y100.535 E41.9370
G1 X74.597 Y101.450 E42.0062
G1 X75.228 Y103.391 E42.1528
G1 X76.879 Y104.591 E42.2995
G1 X78.921 Y104.591 E42.4461
G1 X80.572 Y103.391 E42.5927
G1 X81.203 Y101.450 E42.7394
G1 X80.572 Y99.509 E42.8860
G1 X78.921 Y98.309 E43.0327
G92 E0.0000
G1 E-2.0000 F3000
; feature inner perimeter
G1 X84.966 Y112.137 F3600
G1 E0.0000 F3000
G92 E0.0000
G1 X83.127 Y113.473 E0.1632 F1080
G1 X81.607 Y115.162 E0.3265
G1 X80.471 Y117.129 E0.4897
G1 X79.769 Y119.290 E0.6530
G1 X79.536 Y121.505 E0.8129
G1 X79.536 Y151.636 E2.9776
G1 X78.436 Y151.636 E3.0566
G1 X78.436 Y168.364 E4.2584
G1 X79.536 Y168.364 E4.3374
G1 X79.536 Y198.495 E6.5021
G1 X79.769 Y200.710 E6.6621
G1 X80.471 Y202.871 E6.8253
G1 X81.607 Y204.838 E6.9886
G1 X83.127 Y206.527 E7.1518
G1 X84.966 Y207.863 E7.3151
G1 X87.041 Y208.787 E7.4783
G1 X89.264 Y209.259 E7.6415
G1 X160.736 Y209.259 E12.7762
G1 X162.959 Y208.787 E12.9395
G1 X165.034 Y207.863 E13.1027
G1 X166.873 Y206.527 E13.2659
G1 X168.393 Y204.838 E13.4292
G1 X169.529 Y202.871 E13.5924
G1 X170.231 Y200.710 E13.7557
G1 X170.464 Y198.495 E13.9156
G1 X170.464 Y121.505 E19.4468
G1 X170.231 Y119.290 E19.6067
G1 X169.529 Y117.129 E19.7700
G1 X168.393 Y115.162 E19.9332
G1 X166.873 Y113.473 E20.0964
G1 X165.034 Y112.137 E20.2597
G1 X162.959 Y111.213 E20.4229
G1 X160.736 Y110.741 E20.5862
G1 X89.264 Y110.741 E25.7209
G1 X87.041 Y111.213 E25.8841
G1 X84.966 Y112.137 E26.0473
; feature outer perimeter
G1 X85.255 Y112.639 F3600
G92 E0.0000
G1 X83.515 Y113.903 E0.1545 F810
G1 X82.076 Y115.502 E0.3091
G1 X81.000 Y117.365 E0.4636
G1 X80.335 Y119.411 E0.6182
G1 X80.112 Y121.535 E0.7716
G1 X80.112 Y152.212 E2.9755
G1 X79.012 Y152.212 E3.0545
G1 X79.012 Y167.788 E4.1735
G1 X80.112 Y167.788 E4.2526
G1 X80.112 Y198.465 E6.4565
G1 X80.335 Y200.589 E6.6099
G1 X81.000 Y202.635 E6.7645
G1 X82.076 Y204.498 E6.9190
G1 X83.515 Y206.097 E7.0735
G1 X85.255 Y207.361 E7.2281
G1 X87.220 Y208.236 E7.3826
G1 X89.324 Y208.683 E7.5372
G1 X160.676 Y208.683 E12.6632
G1 X162.780 Y208.236 E12.8177
G1 X164.745 Y207.361 E12.9722
G1 X166.485 Y206.097 E13.1268
G1 X167.924 Y204.498 E13.2813
G1 X169.000 Y202.635 E13.4359
G1 X169.665 Y200.589 E13.5904
G1 X169.888 Y198.465 E13.7439
G1 X169.888 Y121.535 E19.2707
G1 X169.665 Y119.411 E19.4241
G1 X169.000 Y117.365 E19.5787
G1 X167.924 Y115.502 E19.7332
G1 X166.485 Y113.903 E19.8877
G1 X164.745 Y112.639 E20.0423
G1 X162.780 Y111.764 E20.1968
G1 X160.676 Y111.317 E20.3513
G1 X89.324 Y111.317 E25.4773
G1 X87.220 Y111.764 E25.6319
G1 X85.255 Y112.639 E25.7864
G92 E0.0000
G1 E-2.0000 F3000
; feature inner perimeter
G1 X176.065 Y122.500 F3600
G1 E0.0000 F3000
G92 E0.0000
G1 X177.071 Y124.929 E0.1889 F1080
G1 X179.500 Y125.935 E0.3778
G1 X181.929 Y124.929 E0.5667
G1 X182.935 Y122.500 E0.7555
G1 X181.929 Y120.071 E0.9444
G1 X179.500 Y119.065 E1.1333
G1 X177.071 Y120.071 E1.3222
G1 X176.065 Y122.500 E1.5111
; feature outer perimeter
G1 X176.688 Y122.500 F3600
G92 E0.0000
G1 X177.512 Y124.488 E0.1546 F810
G1 X179.500 Y125.312 E0.3092
G1 X181.488 Y124.488 E0.4638
G1 X182.312 Y122.500 E0.6184
G1 X181.488 Y120.512 E0.7730
G1 X179.500 Y119.688 E0.9276
G1 X177.512 Y120.512 E1.0822
G1 X176.688 Y122.500 E1.2368
G92 E0.0000
G1 E-2.0000 F3000
; feature inner perimeter
G1 X181.536 Y129.136 F3600
G1 E0.0000 F3000
G92 E0.0000
