; G-Code generated by Simplify3D(R) Version 4.1.2
; Nov 25, 2022 at 5:43:27 PM
; Settings Summary
;   processName,Et5Pro Tami
;   applyToModels,box
;   profileName,Et5 Tami (modified)
;   profileVersion,2021-05-31 17:22:34
;   baseProfile,Default (modified)
;   printMaterial,PLA
;   printQuality,0.3
;   printExtruders,
;   extruderName,Primary Extruder
;   extruderToolheadNumber,0
;   extruderDiameter,0.4
;   extruderAutoWidth,1
;   extruderWidth,0.48
;   extrusionMultiplier,1
;   extruderUseRetract,1
;   extruderRetractionDistance,2
;   extruderExtraRestartDistance,0
;   extruderRetractionZLift,0
;   extruderRetractionSpeed,3000
;   extruderUseCoasting,0
;   extruderCoastingDistance,0.2
;   extruderUseWipe,0
;   extruderWipeDistance,5
;   primaryExtruder,0
;   layerHeight,0.3
;   topSolidLayers,3
;   bottomSolidLayers,3
;   perimeterOutlines,2
;   printPerimetersInsideOut,1
;   startPointOption,2
;   startPointOriginX,0
;   startPointOriginY,0
;   sequentialIslands,0
;   spiralVaseMode,0
;   firstLayerHeightPercentage,100
;   firstLayerWidthPercentage,120
;   firstLayerUnderspeed,0.5
;   useRaft,0
;   raftExtruder,0
;   raftTopLayers,1
;   raftBaseLayers,0
;   raftOffset,0
;   raftSeparationDistance,0
;   raftTopInfill,100
;   aboveRaftSpeedMultiplier,0.3
;   useSkirt,1
;   skirtExtruder,0
;   skirtLayers,1
;   skirtOutlines,2
;   skirtOffset,4
;   usePrimePillar,0
;   primePillarExtruder,999
;   primePillarWidth,12
;   primePillarLocation,7
;   primePillarSpeedMultiplier,1
;   useOozeShield,0
;   oozeShieldExtruder,999
;   oozeShieldOffset,2
;   oozeShieldOutlines,1
;   oozeShieldSidewallShape,1
;   oozeShieldSidewallAngle,30
;   oozeShieldSpeedMultiplier,1
;   infillExtruder,0
;   internalInfillPattern,Rectilinear
;   externalInfillPattern,Rectilinear
;   infillPercentage,30
;   outlineOverlapPercentage,15
;   infillExtrusionWidthPercentage,100
;   minInfillLength,5
;   infillLayerInterval,1
;   internalInfillAngles,45,-45
;   overlapInternalInfillAngles,0
;   externalInfillAngles,45,-45
;   generateSupport,0
;   supportExtruder,0
;   supportInfillPercentage,25
;   supportExtraInflation,0.1
;   supportBaseLayers,0
;   denseSupportExtruder,0
;   denseSupportLayers,0
;   denseSupportInfillPercentage,10
;   supportLayerInterval,1
;   supportHorizontalPartOffset,0.3
;   supportUpperSeparationLayers,1
;   supportLowerSeparationLayers,1
;   supportType,1
;   supportGridSpacing,3
;   maxOverhangAngle,45
;   supportAngles,0
;   temperatureName,Primary Extruder,Bed
;   temperatureNumber,0,0
;   temperatureSetpointCount,2,2
;   temperatureSetpointLayers,1,2,1,2
;   temperatureSetpointTemperatures,205,200,60,55
;   temperatureStabilizeAtStartup,1,1
;   temperatureHeatedBed,0,1
;   fanLayers,1,2
;   fanSpeeds,0,100
;   blipFanToFullPower,0
;   adjustSpeedForCooling,0
;   minSpeedLayerTime,15
;   minCoolingSpeedSlowdown,30
;   increaseFanForCooling,0
;   minFanLayerTime,45
;   maxCoolingFanSpeed,100
;   increaseFanForBridging,0
;   bridgingFanSpeed,100
;   use5D,1
;   relativeEdistances,0
;   allowEaxisZeroing,1
;   independentExtruderAxes,0
;   includeM10123,0
;   stickySupport,1
;   applyToolheadOffsets,0
;   gcodeXoffset,0
;   gcodeYoffset,0
;   gcodeZoffset,0
;   overrideMachineDefinition,1
;   machineTypeOverride,0
;   strokeXoverride,300
;   strokeYoverride,300
;   strokeZoverride,400
;   originOffsetXoverride,0
;   originOffsetYoverride,-10
;   originOffsetZoverride,0
;   homeXdirOverride,-1
;   homeYdirOverride,1
;   homeZdirOverride,1
;   flipXoverride,-1
;   flipYoverride,1
;   flipZoverride,1
;   toolheadOffsets,0,0|0,0|0,0|0,0|0,0|0,0
;   overrideFirmwareConfiguration,0
;   firmwareTypeOverride,RepRap (Marlin/Repetier/Sprinter)
;   GPXconfigOverride,r2
;   baudRateOverride,115200
;   overridePrinterModels,0
;   printerModelsOverride
;   startingGcode,G28 ; home all axes,G1 E15 F225 ; purge nozzle with 15mm filament,G1 X20 Y5 F15000; move nozzle aside,G92 E0 ; zero the extruded length again
;   layerChangeGcode,
;   retractionGcode,
;   toolChangeGcode,
;   endingGcode,M104 S0 ; turn off extruder,M140 S0 ; turn off bed,M84 ; disable motors,M107;
;   exportFileFormat,gcode
;   celebration,0
;   celebrationSong,Random Song
;   postProcessing,
;   defaultSpeed,2700
;   outlineUnderspeed,0.6
;   solidInfillUnderspeed,1
;   supportUnderspeed,1
;   rapidXYspeed,3600
;   rapidZspeed,5400
;   minBridgingArea,50
;   bridgingExtraInflation,0
;   bridgingExtrusionMultiplier,1
;   bridgingSpeedMultiplier,0.7
;   useFixedBridgingAngle,0
;   fixedBridgingAngle,0
;   applyBridgingToPerimeters,0
;   filamentDiameters,1.75|1.75|1.75|1.75|1.75|1.75
;   filamentPricesPerKg,100|180|180|180|180|180
;   filamentDensities,1.25|1.25|1.25|1.25|1.25|1.25
;   useMinPrintHeight,0
;   minPrintHeight,0
;   useMaxPrintHeight,0
;   maxPrintHeight,100
;   useDiaphragm,0
;   diaphragmLayerInterval,20
;   robustSlicing,1
;   mergeAllIntoSolid,0
;   onlyRetractWhenCrossingOutline,1
;   retractBetweenLayers,1
;   useRetractionMinTravel,0
;   retractionMinTravel,3
;   retractWhileWiping,0
;   onlyWipeOutlines,1
;   avoidCrossingOutline,0
;   maxMovementDetourFactor,3
;   toolChangeRetractionDistance,12
;   toolChangeExtraRestartDistance,-0.5
;   toolChangeRetractionSpeed,600
;   externalThinWallType,0
;   internalThinWallType,1
;   thinWallAllowedOverlapPercentage,10
;   singleExtrusionMinLength,1
;   singleExtrusionMinPrintingWidthPercentage,50
;   singleExtrusionMaxPrintingWidthPercentage,200
;   singleExtrusionEndpointExtension,0.2
;   horizontalSizeCompensation,0
G90
M82
M106 S0
M140 S60
M190 S60
M104 S205 T0
M109 S205 T0
G28 ; home all axes
G1 E15 F225 ; purge nozzle with 15mm filament
G1 X20 Y5 F15000; move nozzle aside
G92 E0 ; zero the extruded length again
; process Et5Pro Tami
; layer 1, Z = 0.300
T0
G92 E0.0000
G1 E-2.0000 F3000
; feature skirt
; tool H0.300 W0.576
G1 Z0.300 F5400
G1 X69.388 Y92.478 F3600
G1 E0.0000 F3000
G92 E0.0000
G1 X71.442 Y90.902 E0.1860 F1350
G1 X71.994 Y90.583 E0.2318
G1 X74.392 Y89.590 E0.4182
G1 X75.008 Y89.425 E0.4641
G1 X77.423 Y89.107 E0.6391
G1 X77.741 Y89.086 E0.6619
G1 X222.259 Y89.086 E11.0444
G1 X222.577 Y89.107 E11.0673
G1 X224.992 Y89.425 E11.2423
G1 X225.608 Y89.590 E11.2881
G1 X228.006 Y90.583 E11.4746
G1 X228.558 Y90.902 E11.5204
G1 X230.617 Y92.482 E11.7068
G1 X231.068 Y92.933 E11.7526
G1 X232.648 Y94.992 E11.9391
G1 X232.967 Y95.544 E11.9849
G1 X233.960 Y97.942 E12.1714
G1 X234.125 Y98.558 E12.2172
G1 X234.443 Y100.973 E12.3922
G1 X234.464 Y101.291 E12.4151
G1 X234.464 Y218.709 E20.8506
G1 X234.443 Y219.027 E20.8735
G1 X234.125 Y221.442 E21.0485
G1 X233.960 Y222.058 E21.0943
G1 X232.967 Y224.456 E21.2808
G1 X232.648 Y225.008 E21.3266
G1 X231.068 Y227.067 E21.5131
G1 X230.617 Y227.518 E21.5589
G1 X228.558 Y229.098 E21.7453
G1 X228.006 Y229.417 E21.7911
G1 X225.608 Y230.410 E21.9776
G1 X224.992 Y230.575 E22.0234
G1 X222.577 Y230.893 E22.1984
G1 X222.259 Y230.914 E22.2213
G1 X77.741 Y230.914 E32.6038
G1 X77.423 Y230.893 E32.6267
G1 X75.008 Y230.575 E32.8017
G1 X74.392 Y230.410 E32.8475
G1 X71.994 Y229.417 E33.0339
G1 X71.442 Y229.098 E33.0797
G1 X69.383 Y227.518 E33.2662
G1 X68.932 Y227.067 E33.3120
G1 X67.352 Y225.008 E33.4985
G1 X67.033 Y224.456 E33.5443
G1 X66.040 Y222.058 E33.7307
G1 X65.875 Y221.442 E33.7766
G1 X65.557 Y219.027 E33.9516
G1 X65.536 Y218.709 E33.9744
G1 X65.536 Y101.291 E42.4100
G1 X65.557 Y100.973 E42.4329
G1 X65.875 Y98.558 E42.6079
G1 X66.040 Y97.942 E42.6537
G1 X67.033 Y95.543 E42.8402
G1 X67.353 Y94.989 E42.8862
G1 X68.939 Y92.927 E43.0730
G1 X69.388 Y92.478 E43.1187
G92 E0.0000
G1 E-2.0000 F3000
G1 X69.769 Y92.912 F3600
G1 E0.0000 F3000
G92 E0.0000
G1 X71.763 Y91.382 E0.1806 F1350
G1 X72.249 Y91.101 E0.2209
G1 X74.578 Y90.136 E0.4020
G1 X75.121 Y89.991 E0.4424
G1 X77.479 Y89.680 E0.6133
G1 X77.760 Y89.662 E0.6335
G1 X222.240 Y89.662 E11.0132
G1 X222.521 Y89.680 E11.0334
G1 X224.879 Y89.991 E11.2043
G1 X225.422 Y90.136 E11.2447
G1 X227.751 Y91.101 E11.4258
G1 X228.237 Y91.382 E11.4661
G1 X230.237 Y92.916 E11.6472
G1 X230.634 Y93.313 E11.6876
G1 X232.168 Y95.313 E11.8686
G1 X232.449 Y95.799 E11.9090
G1 X233.414 Y98.128 E12.0900
G1 X233.559 Y98.671 E12.1304
G1 X233.870 Y101.029 E12.3014
G1 X233.888 Y101.310 E12.3215
G1 X233.888 Y218.690 E20.7544
G1 X233.870 Y218.971 E20.7745
G1 X233.559 Y221.329 E20.9455
G1 X233.414 Y221.872 E20.9859
G1 X232.449 Y224.201 E21.1669
G1 X232.168 Y224.687 E21.2073
G1 X230.634 Y226.687 E21.3883
G1 X230.237 Y227.084 E21.4287
G1 X228.237 Y228.618 E21.6098
G1 X227.751 Y228.899 E21.6501
G1 X225.422 Y229.864 E21.8312
G1 X224.879 Y230.009 E21.8716
G1 X222.521 Y230.320 E22.0425
G1 X222.240 Y230.338 E22.0627
G1 X77.760 Y230.338 E32.4424
G1 X77.479 Y230.320 E32.4626
G1 X75.120 Y230.009 E32.6335
G1 X74.578 Y229.864 E32.6739
G1 X72.249 Y228.899 E32.8550
G1 X71.763 Y228.618 E32.8953
G1 X69.763 Y227.084 E33.0764
G1 X69.366 Y226.687 E33.1168
G1 X67.832 Y224.687 E33.2978
G1 X67.551 Y224.201 E33.3382
G1 X66.586 Y221.872 E33.5192
G1 X66.441 Y221.329 E33.5596
G1 X66.130 Y218.971 E33.7306
G1 X66.112 Y218.690 E33.7507
G1 X66.112 Y101.310 E42.1836
G1 X66.130 Y101.029 E42.2037
G1 X66.441 Y98.671 E42.3747
G1 X66.586 Y98.128 E42.4151
G1 X67.551 Y95.799 E42.5962
G1 X67.833 Y95.310 E42.6367
G1 X69.372 Y93.308 E42.8181
G1 X69.769 Y92.912 E42.8584
G92 E0.0000
G1 E-2.0000 F3000
; feature inner perimeter
G1 X73.217 Y96.760 F3600
G1 E0.0000 F3000
G92 E0.0000
G1 X74.586 Y95.710 E0.1239 F1080
G1 X76.184 Y95.047 E0.2482
G1 X77.957 Y94.814 E0.3766
G1 X222.043 Y94.814 E10.7281
G1 X223.816 Y95.047 E10.8565
G1 X225.414 Y95.710 E10.9808
G1 X226.787 Y96.763 E11.1052
G1 X227.840 Y98.136 E11.2295
G1 X228.503 Y99.734 E11.3538
G1 X228.736 Y101.507 E11.4822
G1 X228.736 Y218.493 E19.8868
G1 X228.503 Y220.266 E20.0152
G1 X227.840 Y221.864 E20.1395
G1 X226.787 Y223.237 E20.2638
G1 X225.414 Y224.290 E20.3881
G1 X223.816 Y224.953 E20.5124
G1 X222.043 Y225.186 E20.6409
G1 X77.957 Y225.186 E30.9923
G1 X76.184 Y224.953 E31.1207
G1 X74.586 Y224.290 E31.2451
G1 X73.213 Y223.237 E31.3694
G1 X72.159 Y221.864 E31.4937
G1 X71.497 Y220.266 E31.6180
G1 X71.264 Y218.493 E31.7464
G1 X71.264 Y101.507 E40.1510
G1 X71.497 Y99.734 E40.2794
G1 X72.159 Y98.136 E40.4037
G1 X73.217 Y96.760 E40.5284
; feature outer perimeter
G1 X72.807 Y96.349 F3600
G92 E0.0000
G1 X74.295 Y95.206 E0.1348 F810
G1 X76.034 Y94.486 E0.2700
G1 X77.919 Y94.238 E0.4066
G1 X222.081 Y94.238 E10.7635
G1 X223.966 Y94.486 E10.9001
G1 X225.705 Y95.206 E11.0353
G1 X227.198 Y96.352 E11.1705
G1 X228.344 Y97.845 E11.3057
G1 X229.064 Y99.584 E11.4409
G1 X229.312 Y101.469 E11.5775
G1 X229.312 Y218.531 E19.9874
G1 X229.064 Y220.416 E20.1240
G1 X228.344 Y222.155 E20.2592
G1 X227.198 Y223.648 E20.3945
G1 X225.705 Y224.794 E20.5297
G1 X223.966 Y225.514 E20.6649
G1 X222.081 Y225.762 E20.8015
G1 X77.919 Y225.762 E31.1583
G1 X76.034 Y225.514 E31.2949
G1 X74.295 Y224.794 E31.4301
G1 X72.802 Y223.648 E31.5653
G1 X71.656 Y222.155 E31.7006
G1 X70.936 Y220.416 E31.8358
G1 X70.688 Y218.531 E31.9723
G1 X70.688 Y101.469 E40.3823
G1 X70.936 Y99.584 E40.5189
G1 X71.656 Y97.845 E40.6541
G1 X72.807 Y96.349 E40.7897
; feature solid layer
G1 X73.697 Y222.992 F3600
G92 E0.0000
G1 X73.458 Y222.753 E0.0243 F1350
G1 X72.587 Y221.617 E0.1271
G1 X72.198 Y220.678 E0.2001
G1 X75.772 Y224.252 E0.5633
G1 X76.312 Y224.476 E0.6053
G1 X76.886 Y224.551 E0.6469
G1 X71.899 Y219.564 E1.1536
G1 X71.775 Y218.626 E1.2215
G1 X77.824 Y224.675 E1.8361
G1 X77.989 Y224.696 E1.8480
G1 X78.660 Y224.696 E1.8963
G1 X71.754 Y217.790 E2.5980
G1 X71.754 Y216.975 E2.6565
G1 X79.475 Y224.696 E3.4410
G1 X80.290 Y224.696 E3.4995
G1 X71.754 Y216.160 E4.3668
G1 X71.754 Y215.346 E4.4253
G1 X81.104 Y224.696 E5.3753
G1 X81.919 Y224.696 E5.4338
G1 X71.754 Y214.531 E6.4666
G1 X71.754 Y213.717 E6.5251
G1 X82.733 Y224.696 E7.6407
G1 X83.548 Y224.696 E7.6992
G1 X71.754 Y212.902 E8.8975
G1 X71.754 Y212.088 E8.9560
G1 X84.362 Y224.696 E10.2371
G1 X85.177 Y224.696 E10.2956
G1 X71.754 Y211.273 E11.6594
G1 X71.754 Y210.458 E11.7179
G1 X85.992 Y224.696 E13.1645
G1 X86.806 Y224.696 E13.2230
G1 X71.754 Y209.644 E14.7524
G1 X71.754 Y208.829 E14.8109
G1 X87.621 Y224.696 E16.4230
G1 X88.435 Y224.696 E16.4815
G1 X71.754 Y208.015 E18.1764
G1 X71.754 Y207.200 E18.2349
G1 X89.250 Y224.696 E20.0126
G1 X90.065 Y224.696 E20.0711
G1 X71.754 Y206.385 E21.9315
G1 X71.754 Y205.571 E21.9900
G1 X90.879 Y224.696 E23.9332
G1 X91.694 Y224.696 E23.9917
G1 X71.754 Y204.756 E26.0176
G1 X71.754 Y203.942 E26.0761
G1 X92.508 Y224.696 E28.1848
G1 X93.323 Y224.696 E28.2433
G1 X71.754 Y203.127 E30.4348
G1 X71.754 Y202.312 E30.4933
G1 X94.138 Y224.696 E32.7675
G1 X94.952 Y224.696 E32.8260
G1 X71.754 Y201.498 E35.1830
G1 X71.754 Y200.683 E35.2415
G1 X95.767 Y224.696 E37.6812
G1 X96.581 Y224.696 E37.7397
G1 X71.754 Y199.869 E40.2622
G1 X71.754 Y199.054 E40.3208
G1 X97.396 Y224.696 E42.9260
G1 X98.210 Y224.696 E42.9845
G1 X71.754 Y198.240 E45.6725
G1 X71.754 Y197.425 E45.7311
G1 X99.025 Y224.696 E48.5018
G1 X99.840 Y224.696 E48.5604
G1 X71.754 Y196.610 E51.4139
G1 X71.754 Y195.796 E51.4724
G1 X100.654 Y224.696 E54.4087
G1 X101.469 Y224.696 E54.4672
G1 X71.754 Y194.981 E57.4863
G1 X71.754 Y194.167 E57.5448
G1 X102.283 Y224.696 E60.6466
G1 X103.098 Y224.696 E60.7052
G1 X71.754 Y193.352 E63.8897
G1 X71.754 Y192.537 E63.9483
G1 X103.913 Y224.696 E67.2156
G1 X104.727 Y224.696 E67.2741
G1 X71.754 Y191.723 E70.6242
G1 X71.754 Y190.908 E70.6828
G1 X105.542 Y224.696 E74.1156
G1 X106.356 Y224.696 E74.1741
G1 X71.754 Y190.094 E77.6898
G1 X71.754 Y189.279 E77.7483
G1 X107.171 Y224.696 E81.3467
G1 X107.986 Y224.696 E81.4052
G1 X71.754 Y188.464 E85.0864
G1 X71.754 Y187.650 E85.1449
G1 X108.800 Y224.696 E88.9088
G1 X109.615 Y224.696 E88.9673
G1 X71.754 Y186.835 E92.8140
G1 X71.754 Y186.021 E92.8725
G1 X110.429 Y224.696 E96.8020
G1 X111.244 Y224.696 E96.8605
G1 X71.754 Y185.206 E100.8727
G1 X71.754 Y184.392 E100.9312
G1 X112.058 Y224.696 E105.0262
G1 X112.873 Y224.696 E105.0847
G1 X71.754 Y183.577 E109.2624
G1 X71.754 Y182.762 E109.3209
G1 X113.688 Y224.696 E113.5814
G1 X114.502 Y224.696 E113.6400
G1 X71.754 Y181.948 E117.9832
G1 X71.754 Y181.133 E118.0417
G1 X115.317 Y224.696 E122.4677
G1 X116.131 Y224.696 E122.5263
G1 X71.754 Y180.319 E127.0350
G1 X71.754 Y179.504 E127.0936
G1 X116.946 Y224.696 E131.6851
G1 X117.761 Y224.696 E131.7436
G1 X71.754 Y178.689 E136.4179
G1 X71.754 Y177.875 E136.4764
G1 X118.575 Y224.696 E141.2335
G1 X119.390 Y224.696 E141.2920
G1 X71.754 Y177.060 E146.1318
G1 X71.754 Y176.246 E146.1903
G1 X120.204 Y224.696 E151.1129
G1 X121.019 Y224.696 E151.1715
G1 X71.754 Y175.431 E156.1768
G1 X71.754 Y174.617 E156.2353
G1 X121.833 Y224.696 E161.3234
G1 X122.648 Y224.696 E161.3819
G1 X71.754 Y173.802 E166.5528
G1 X71.754 Y172.987 E166.6113
G1 X123.463 Y224.696 E171.8650
G1 X124.277 Y224.696 E171.9235
G1 X71.754 Y172.173 E177.2599
G1 X71.754 Y171.358 E177.3184
G1 X125.092 Y224.696 E182.7376
G1 X125.906 Y224.696 E182.7961
G1 X71.754 Y170.544 E188.2980
G1 X71.754 Y169.729 E188.3565
G1 X126.721 Y224.696 E193.9412
G1 X127.536 Y224.696 E193.9997
G1 X71.754 Y168.914 E199.6671
G1 X71.754 Y168.100 E199.7257
G1 X128.350 Y224.696 E205.4759
G1 X129.165 Y224.696 E205.5344
G1 X71.754 Y167.285 E211.3674
G1 X71.754 Y166.471 E211.4259
G1 X129.979 Y224.696 E217.3416
G1 X130.794 Y224.696 E217.4001
G1 X71.754 Y165.656 E223.3986
G1 X71.754 Y164.841 E223.4571
G1 X131.609 Y224.696 E229.5384
G1 X132.423 Y224.696 E229.5969
G1 X71.754 Y164.027 E235.7609
G1 X71.754 Y163.212 E235.8194
G1 X133.238 Y224.696 E242.0662
G1 X134.052 Y224.696 E242.1247
G1 X71.754 Y162.398 E248.4543
G1 X71.754 Y161.583 E248.5128
G1 X134.867 Y224.696 E254.9251
G1 X135.681 Y224.696 E254.9836
G1 X71.754 Y160.769 E261.4787
G1 X71.754 Y159.954 E261.5372
G1 X136.496 Y224.696 E268.1150
G1 X137.311 Y224.696 E268.1735
G1 X71.754 Y159.139 E274.8341
G1 X71.754 Y158.325 E274.8926
G1 X138.125 Y224.696 E281.6360
G1 X138.940 Y224.696 E281.6945
G1 X71.754 Y157.510 E288.5206
G1 X71.754 Y156.696 E288.5791
G1 X139.754 Y224.696 E295.4880
G1 X140.569 Y224.696 E295.5465
G1 X71.754 Y155.881 E302.5381
